X: 20554
M: 6/8
L: 1/8
K: G
(GA).B (cd).e | dBG A2D | GAB c2e | dcA G2 :: d |\
(gf).e (dc).B | (cd).e A2c | (Bc).d ecA | G3 FAd |\
(gf).e (dc).B | c2d (e/f/) Hg (f/e/) | (d>c)B A>dF | G3- G2 :|


